!!!!SEGMENT: pl-kk--i-540--001-005_rychling-wincenty-waclaw--kompleta-no-iv-in-manus-tuas-domine.krn
!!!cenid: 18xx:4465
!!!COM: Rychling, Wincenty Wacław
!!!COM-rismID: pe50046026
!!!CDT: 1841/01/09-1896/01/11
!!!CNT: Polish
!!!GTL: Kompleta
!!!OTL: No. IV. In manus tuas Domine
!!!OMV: 005
!!!PDT:
!!!AGN: Sacred
!!!YEC: Copyright 2022 Narodowy Instytut Fryderyka Chopina (https://polishscores.org)
!!!YEM: License CC-BY-4.0 (https://creativecommons.org/licenses/by/4.0)
!!!SMS-siglum: PL-Kk
!!!SMS-shelfmark: I.540
!!!SMS-variant: Partytura PL-Kk I.540:4
!!!SMS-altvar: Tenor I PL-Kk I.540:9; Tenor II PL-Kk I.540:11; Bas I PL-Kk I.540:13; Bas II PL-Kk I.540:15
!!!SMS-shelfwork: 001-005 G
!!!NIFC-rismSourceID: 1001210701
!!!NIFC-rismChildID: 1001210713
!!!NIFC-islandoraID: pl-kk:16958
!!!URL-pdf-islandora: https://repozytorium.nifc.pl/islandora/object/pl-kk%3A16958/datastream/PDF/view
!!!URL-scan: https://polish.musicsources.pl/pl/lokalizacje/galeria/rekopisy/7167/4 @EN{Scan on Polish Music Sources Website} @PL{Skany w portalu Dziedzictwo Muzyki Polskiej w otwartym dostępie}
!!!IIIF:
!!!ONB-nifc: UWAGA: wg partytury, skan 4. Proszę uzupełnić SMS:variant (partytura) i SMS:altvar (głosy) wg instrukcji w wątku #53.
!!!OMD:
!!!AIN: 2 male
!!!key: B-
**kern	**text	**kern	**text
*part2	*part2	*part1	*part1
*staff2	*staff2	*staff1	*staff1
*I"[Voice]	*	*I"[Voice]	*
*Imale	*	*Imale	*
*ICvox	*	*ICvox	*
*clefF4	*	*clefG2	*
*	*	*ITrd8c12	*
*k[b-e-]	*	*k[b-e-]	*
*B-:	*	*B-:	*
*M2/2	*	*M2/2	*
*met(c|)	*	*met(c|)	*
*^	*	*^	*
*	*2\right	*	*	*2\right	*
!!LO:TX:t=P:problem=all/left
!!LO:TX:t=P:problem=all\right
2D/	2BB-\	.	2B-/	2F\	In
=1	=1	=1	=1	=1	=1
2E-/	2E-\	.	2B-/	2G\	ma-
2F/	2D\	.	2B-/	2F\	-nus
=2	=2	=2	=2	=2	=2
2E-/	2AA\	.	2c/	2F\	tu-
2D/	2BB-\	.	2B-/	2F\	-as
=3	=3	=3	=3	=3	=3
2.F/	2.F\	.	2.c/	2.A\	Do-
4F/	4BB-\	.	4d/	4B-\	-mi-
=4	=4	=4	=4	=4	=4
2.En/	2.C\	.	2.d/	2.B-\	.
4E/	4C\	.	4c/	4B-\	.
!!LO:LB:g=original
=5	=5	=5	=5	=5	=5
2F/	2F\	.	2c/	2A\	-ne
2r	2ryy	.	2r	2ryy	.
=6	=6	=6	=6	=6	=6
2D/	2BB-\	.	2B-/	2F\	Com-
4G/	4G\	.	4B-/	4G\	-men-
4G/	4G\	.	4B-/	4G\	-do
=7	=7	=7	=7	=7	=7
4c/	2F\	.	2c/	2A\	spi-
4F/	.	.	.	.	.
2F/	2BB-\	.	2d/	2B-\	-ri-
=8	=8	=8	=8	=8	=8
2E-/	2C\	.	2c/	2A\	-tum
2F/	2D\	.	2B-/	2B-\	.
=9	=9	=9	=9	=9	=9
2G/	2E-\	.	1c	2B-\	me-
2F/	2F\	.	.	2A\	.
=10	=10	=10	=10	=10	=10
2B-/	2BB-\	.	2B-/	2B-\	-um
=11:|!	=11:|!	=11:|!	=11:|!	=11:|!	=11:|!
2F/	2BB-\	.	2d/	2B-\	Re-
4F/	4F\	.	4c/	4A\	.
4F/	4BB-\	.	4d/	4B-\	-de-
!!LO:LB:g=original
=12	=12	=12	=12	=12	=12
4F/	4BB-\	.	4d/	4B-\	-mi-
4F/	4BB-\	.	4d/	4B-\	-sti
2F/	2BB-\	.	2d/	2B-\	nos
=13	=13	=13	=13	=13	=13
4G/	4G\	.	4d/	4B-\	Do-
4.A/	4.F\	.	4.f/	4.c\	.
8B-/	8G\	.	8d/	8B-\	-mi-
4G/	4G\	.	4d/	4B-\	-ne
=14	=14	=14	=14	=14	=14
2F#X/	2D#X\	.	2d/	2A\	De-
2G/	2G\	.	2d/	2B-\	-us
=15	=15	=15	=15	=15	=15
2G/	2E-\	.	2c/	2G\	ve-
4F/	4D\	.	4B-/	4B-\	.
4E-/	4C\	.	4c/	4A\	-ri-
=16	=16	=16	=16	=16	=16
1F	1BB-	.	1d	1B-	-ta-
=17	=17	=17	=17	=17	=17
2F/	2F\	.	2c/	2A\	-tis
2r	2ryy	.	2r	2ryy	.
!!LO:LB:g=original
=18	=18	=18	=18	=18	=18
2D/	2BB-\	.	2B-/	2F\	Com-
4F/	2D\	.	4B-/	4F\	-men-
4F/	.	.	4B-/	4F\	-do
=19	=19	=19	=19	=19	=19
4F/	4F\	.	4c/	4A\	spi-
4F/	4BB-\	.	4d/	4B-\	-ri-
4E-/	4C\	.	4c/	4A\	.
4F/	4D\	.	4B-/	4B-\	-tum
=20	=20	=20	=20	=20	=20
2G/	2E-\	.	1c	2B-\	me-
2F/	2F\	.	.	2A\	.
=21	=21	=21	=21	=21	=21
2B-/	2BB-\	.	2B-/	2B-\	-um
=22||	=22||	=22||	=22||	=22||	=22||
2.D/	2.BB-\	.	2.B-/	2.F\	Glo-
4F/	4BB-\	.	4d/	4B-\	-ri-
=23	=23	=23	=23	=23	=23
1F	1BB-	.	1d	1B-	-a
=24	=24	=24	=24	=24	=24
4G/	4G\	.	4d/	4B-\	Pa-
2.A/	2.F\	.	2.f/	2.c\	.
!!LO:LB:g=original
=25	=25	=25	=25	=25	=25
2F/	2F\	.	2c/	2A\	-tri
2F/	2F\	.	2c/	2A\	et
=26	=26	=26	=26	=26	=26
4F/	4F\	.	4c/	4A\	fi-
2F/	2BB-\	.	2d/	2B-\	-li-
4En/	4C\	.	4c/	4B-\	.
=27	=27	=27	=27	=27	=27
2F/	2F\	.	2c/	2A\	-o
2G/	2En\	.	2c/	2G\	et
=28	=28	=28	=28	=28	=28
2F/	2E-X\	.	2c/	2A\	Spi-
2F/	2D\	.	2d/	2B-\	-ri-
=29	=29	=29	=29	=29	=29
2F#X/	2D\	.	2c/	2A\	-tu-
2G/	2G\	.	2B-/	2G\	-i
=30	=30	=30	=30	=30	=30
2c/	1F	.	1c	2A\	Sanc-
2F/	.	.	.	2ryy	.
=31	=31	=31	=31	=31	=31
1F	1BB-	.	1d	1B-	-to
*v	*v	*	*	*	*
*	*	*v	*v	*
==	==	==	==
*-	*-	*-	*-
!!!system-decoration: {(s1,s2)}
!!!ENC: Andrzej Gręziak
!!!END: 2023-10-27
!!!EED: Marta Chmielewska
!!!EEV: 2024-04-18
